!!!COM: Bach, Johann Sebastian
!!!CDT: 1685/3//-1750/7/28/
!!!OTL@@DE: Christus ist erstanden, hat ueberwunden
!!!OTL@EN:  Christ is risen, has conquered
!!!AGN: 4-Part Chorale
!!!SCT: BH 200
!!!SCT: BWV 284
**harm	**root	**kern	**kern	**kern	**kern
*	*Iorgan	*Iorgan	*Iorgan	*Iorgan	*Iorgan
!	!	!bass	!tenor	!alto	!soprno
*	*	*clefF4	*clefF4	*clefG2	*clefG2
*M4/4	*M4/4	*M4/4	*M4/4	*M4/4	*M4/4
*met(c)	*met(c)	*met(c)	*met(c)	*met(c)	*met(c)
*MM60	*MM60	*MM60	*MM60	*MM60	*MM60
*k[b-]	*k[b-]	*k[b-]	*k[b-]	*k[b-]	*k[b-]
*F:	*F:	*F:	*F:	*F:	*F:
=1-	=1-	=1-	=1-	=1-	=1-
I	4CC	4f	4a	4cc	4ff
Vb	4GG	4e	4g	[4cc	4cc
vii/V	4FF#	4d	4f	8cc]	4dd
.	.	.	.	8b	.
V	4GG	8c	4g	4cc	4ee
.	.	8B-	.	.	.
=2	=2	=2	=2	=2	=2
Ib	4CC	4A	8f	4.cc	2ff
.	.	.	8e-	.	.
IV	4FF	4B-	4d	.	.
.	.	.	.	[8b-	.
I;	4CC;	4F;	4c;	8b-]	4ff;
.	.	.	.	8a;	.
V/IV	4CC	8f	4f	[4a	4cc
.	.	8e-	.	.	.
=3	=3	=3	=3	=3	=3
vi	8AA	4d	4f	8a]	4ff
viiob/V	8FF#	.	.	8b	.
v	4GG	4c	4g	4cc	4ee-
iio7b/v	4AA	4F	4a-	4cc	2dd
V/V	4DD	4G	8g	4b	.
.	.	.	8f	.	.
=4	=4	=4	=4	=4	=4
v;	2GG;	2C;	2e-;	2g;	2cc;
v	4GG	4c	4e-	8g	4cc
.	.	.	.	4a-	.
viioD7/v	8FF#	4B	4f	.	4dd
V7b/v	8DD	.	.	[8g	.
=5	=5	=5	=5	=5	=5
v	4GG	4c	8e-	8g]	4ee-
.	.	.	8c	8ee-	.
iv/v	4CC	4F	4a-	8dd	4ff
.	.	.	.	8cc	.
Vc	4GG	4G	[4g	8b	4ee-
.	.	.	.	4cc	.
V/v	4DD	4GG	8.g]	.	4dd
.	.	.	.	8b	.
.	.	.	16f	.	.
!!linebreak: 3
=6	=6	=6	=6	=6	=6
v;	2GG;	2C;	2e-;	2g;	2cc;
I	4CC	8F	[4f	8a	4cc
.	.	8G	.	8b-	.
Ib	4CC	8A	8f]	4cc	4ff
.	.	8B-	8g	.	.
=7	=7	=7	=7	=7	=7
Ic	4CC	4c	8a	4cc	4ff
.	.	.	16g	.	.
.	.	.	16f	.	.
V	4GG	4C	8g	4cc	4ee
.	.	.	[8b-	.	.
I;	2CC;	2F;	8b-]	2cc;	2ff;
.	.	.	16a	.	.
.	.	.	16g	.	.
.	.	.	4a;	.	.
=8	=8	=8	=8	=8	=8
IV	4FF	8B-	4b-	4dd	4ff
.	.	8c	.	.	.
IV	4FF	8B-	4b-	8dd	4ff
.	.	8A	.	8cc	.
ii	4DD	8G	8b-	8b-	4gg
.	.	8A	8a	8cc	.
iib	4DD	8B-	8g	[4dd	4gg
.	.	8c	8a	.	.
=9	=9	=9	=9	=9	=9
IVb	4FF	8d	[4b-	4dd]	4ff
.	.	8B-	.	.	.
ii7	8DD	8c	8b-]	8ee-	4ee-
V7/IV	8CC	8F	8a	8cc	.
IV;	2FF;	2B-;	2f;	2b-;	2dd;
=10	=10	=10	=10	=10	=10
V/IV	4CC	8f	4f	4a	4cc
.	.	8e-	.	.	.
vi	8AA	4d	4f	8a	4dd
viiob/v	8FF#	.	.	8b	.
v	4GG	8c	4g	[4cc	4ee-
.	.	8E-	.	.	.
iio7b/v	8AA	8F	8a-	8cc]	4dd
V/v	8DD	8G	16g	8b	.
.	.	.	16f	.	.
!!linebreak: 3
=11	=11	=11	=11	=11	=11
-III;	2EE-;	2A-;	2e-;	2cc;	2cc;
v	4GG	4c	8e-	8g	4ee-
.	.	.	8g	[8ee-	.
V/-VII	4FF	4B-	4b-	8ee-]	4ff
.	.	.	.	8dd	.
=12	=12	=12	=12	=12	=12
-VII	4BB-	8e-	4b-	2ee-	4gg
.	.	8d	.	.	.
IVb/-VII	8EE-	8c	8a-	.	8aa-
Ic/-VII	8BB-	8B-	8b-	.	8gg
ii7b/-VII	8CC	8A-	8cc	4ee-	2ff
ii7/-VII	8CC	8F	8a-	.	.
V/-VII	4FF	4B-	8f	4dd	.
.	.	.	8b-	.	.
=13	=13	=13	=13	=13	=13
I/-VII;	2BB-;	2E-;	2b-;	2ee-;	2gg;
I/-VII	4BB-	4e-y	4b-	4.ee-	4gg
V/-VII	4FF	4B-	4b-	.	4ff
.	.	.	.	8dd	.
=14	=14	=14	=14	=14	=14
I/-VII	4BB-	8e-	4b-	4ee-	4gg
.	.	8d	.	.	.
iio7d/v	8AA	8c	8a-	4dd	4ff
V7b/v	8DD	8B	8g	.	.
v	4GG	8c	4g	4cc	4ee-
.	.	8d	.	.	.
V7d/IV	4CC	8e-	4f	4a	4cc
.	.	8f	.	.	.
=15	=15	=15	=15	=15	=15
IV	4FF	4B-	4f	8b-	4dd
.	.	.	.	8a	.
V7	4GG	4c	4c	8g	4ee
.	.	.	.	8b-	.
I;	2CC;	2F;	2c;	2a;	2ff;
==	==	==	==	==	==
*-	*-	*-	*-	*-	*-
!!!YOR1: Ludwig Erk, Peters Editions of 1850, 1865; rev. in light of Friedrich
!!!YOR2: Smend, Peters Edition of 1932 & Albert Riemenschneider, 1941.
!!!RDT: 1987 September
!!!YER: 1995 March 1
!!chor2scor: -l 3 -s 0.6 -o %b.pmx
!!!YEC: Copyright 1994, David Huron
!!!YEC: Changes/Additions 2001 by Craig Stuart Sapp
!!!YEN: United States of America
!!!SMA: J.S. Bach Chorale Harmonizations, edited by Ludwig Erk, C.F. Peters
!!!PDT: 1850, 1865
